X:240
T:Steirische Jodler und Taenze Nr. 1 - 48 (38.)
C:traditionell
A:Salzkammergut
S:MIDI erhalten von Christian Amon. Nach einer kopie im besitz von Johann Stoeckl eines manuscriptes. Stoeckl(zitiert von Amon): "diese sammlung wurde 1935 im hause der familie Hohenlohe-Schillingfuerst gefunden. Sie wurde von einem der beiden brueder Steinegger 1866 verfasst. Die originale sind im Ausseer Kammerhofmuseum".
M:3/4
L:1/8
K:G
V:1
DE/F/ |\
Gd B2 AG | Fe c2 DE/G/ | FAedcF | Gd B2 DE/F/ |\
Gd B2 AG | Fe c2 DE/G/ | FAedcF | G4 |*
V:2
FG/A/ |\
Bg d2 cB | Ag e2 FG/B/ | AcgfeA | Bg d2 FG/A/ |\
Bg d2 cB | Ag e2 FG/B/ | AcgfeA | B4 |*
